X:1
T:Title
L:1/8
M:6/8
K:G
V:1 treble nm="Grand Piano"
V:1
 z3 z2 G | F3 E2 F | G3 G2 A | E3 E2 E | E3 E2 E | A3 A2 A | A3 AGA | B3 A2 G | G3- G2 D | %9
 B,3 C2 ^C | D3 G2 A | B3 A2 G | G3 G2 G | c3 B2 A | B3 A2 G | A3 GFG | A6- | A3- A2 c | B6 | %19
 D3- D2 A | G6- | G6 |] %22

